!!!!SEGMENT: pl-stab--3b--001-007_rodowski-aleksander--modlitwa-in-b-oto-nas-masz.krn
!!!cenid: 18xx:3428
!!!COM: Rodowski, Aleksander
!!!COM-rismid: pe30009627
!!!CDT: <1790->1810
!!!CNT: Polish
!!!OPR: Modlitwa in B
!!!OTL: Oto nas masz
!!!OMV: 007
!!!PDT: 1806
!!!AGN:
!!!SMS-siglum: PL-STAb
!!!SMS-shelfmark: 3b
!!!SMS-shelfwork: 001-007 M
!!!SMS-variant: Canto. PL-STAb 3b: 10-15
!!!SMS-altvar: Canto PL-STAb 3b: 16-18
!!!NIFC-rismid: 301050648
!!!URL-scan: https://repozytorium.nifc.pl/islandora/object/pl-stab%3A961/datastream/PDF/view
!!!ONB-nifc: UWAGA: części Modlitwy: 1. Przed oczy twoie (Adagio), 2. Umysł utrapieniem (Moderatto), 3. Życie w uciskach (Adagio), 4. Jeżeli sprawiedliwie (Moderato), 5. Wyznawamy (Adagio), 6. Kiedy nas karzesz (Adagio), 7. Oto nas masz (Andante), 8. Racz nam tedy dać (Allegro)
!!!key: B-
**kern	**kern	**dynam	**kern	**kern	**kern	**text	**kern	**text	**dynam	**kern	**text	**dynam
*part7	*part6	*part6	*part5	*part4	*part3	*part3	*part2	*part2	*part2	*part1	*part1	*part1
*group3	*group3	*	*group2	*group2	*group1	*group1	*group1	*group1	*	*group1	*group1	*
*staff7	*staff6	*	*staff5	*staff4	*staff3	*staff3	*staff2	*staff2	*	*staff1	*staff1	*
*I"Organo	*I"Organo	*	*I"Violino Secundo	*I"Violino Primo	*I"Baſso	*	*I"Tenor	*	*	*I"Canto.	*	*
*I'org	*I'org	*	*I'vl 2	*I'vl 1	*I'B	*	*I'T	*	*	*I'S	*	*
*Iorgan	*Iorgan	*	*Ivioln	*Ivioln	*Ibass	*	*Itenor	*	*	*Isoprn	*	*
*ICklav	*ICklav	*	*ICstr	*ICstr	*ICvox	*	*ICvox	*	*	*ICvox	*	*
*clefF4	*clefG2	*	*clefG2	*clefG2	*clefF4	*	*clefC4	*	*	*clefC1	*	*
*k[b-e-]	*k[b-e-]	*	*k[b-e-]	*k[b-e-]	*k[b-e-]	*	*k[b-e-]	*	*	*k[b-e-]	*	*
*B-:	*B-:	*	*B-:	*B-:	*B-:	*	*B-:	*	*	*B-:	*	*
*M4/4	*M4/4	*	*M4/4	*M4/4	*M4/4	*	*M4/4	*	*	*M4/4	*	*
*met(c)	*met(c)	*	*met(c)	*met(c)	*met(c)	*	*met(c)	*	*	*met(c)	*	*
=1	=1	=1	=1	=1	=1	=1	=1	=1	=1	=1	=1	=1
*2\right	*2\right	*2\right	*2\right	*2\right	*2\right	*2\right	*2\right	*2\right	*2\right	*2\right	*2\right	*2\right
!	!	!	!LO:TX:a:B:t=Andante	!LO:TX:a:B:t=Andante	!	!	!	!	!	!	!	!
!	!LO:TX:a:B:t=Andante	!	!LO:TX:a:t=Tacet	!LO:TX:a:t=Tacet	!LO:TX:a:B:t=Andante	!	!LO:TX:a:B:t=Andante	!	!	!LO:TX:a:B:t=Andante	!	!
1ryy	4b-\	.	1ryy	1ryy	0r	.	1r	.	.	4b-\	O-	.
.	4b-\	.	.	.	.	.	.	.	.	4b-\	-to	.
.	4b-\	.	.	.	.	.	.	.	.	4b-\	nas	.
.	4b-\	.	.	.	.	.	.	.	.	4b-\	masz	.
=2	=2	=2	=2	=2	=2	=2	=2	=2	=2	=2	=2	=2
*	*	*	*	*	*	*	*	*	*	*	*ij	*
1ryy	4dd 4b-\	.	1ryy	1ryy	.	.	4B-\	O-	.	4dd\	O-	.
.	4dd 4b-\	.	.	.	.	.	4B-\	-to	.	4dd\	-to	.
.	4dd 4b-\	.	.	.	.	.	4B-\	nas	.	4dd\	nas	.
.	4dd 4b-\	.	.	.	.	.	4B-\	masz	.	4dd\	masz	.
=3	=3	=3	=3	=3	=3	=3	=3	=3	=3	=3	=3	=3
*	*	*	*	*	*	*	*	*ij	*	*	*	*
4B- 4BB-\	4ff 4dd 4b-\	.	1ryy	1ryy	4B-\	O-	4d\	O-	.	4ff\	O-	.
4B- 4BB-\	4ff 4dd 4b-\	.	.	.	4B-\	-to	4d\	-to	.	4ff\	-to	.
!	!	!	!	!	!LO:SIC:v:l:s=nas	!	!	!	!	!	!	!
4B- 4BB-\	4ff 4dd 4b-\	.	.	.	4B-\	nasz	4d\	nas	.	4ff\	nas	.
4B- 4BB-\	4ff 4dd 4b-\	.	.	.	4B-\	masz	4d\	masz	.	4ff\	masz	.
*	*	*	*	*	*	*	*	*Xij	*	*	*Xij	*
=4	=4	=4	=4	=4	=4	=4	=4	=4	=4	=4	=4	=4
8A\L	8ee-L 8cc\	.	1ryy	1ryy	8A\	Ko-	8c\	Ko-	.	8ee-\	Ko-	.
8A\	8ee- 8cc\	.	.	.	8A\	-rzą-	8c\	-rzą-	.	8ee-\	-rzą-	.
!	!	!	!	!	!	!	!	!	!	!LO:LB:g=original	!	!
8A\	8ee- 8cc\	.	.	.	8A\	-cych	8c\	-cych	.	8ee-\	-cych	.
8A\J	8ee-J 8cc\	.	.	.	8A\	sie	8c\	sie	.	8ee-\	sie	.
8A\L	8ee-L 8cc\	.	.	.	8A\	to-	8c\	to-	.	8ee-\	to-	.
8B-\J	8ddJ 8b-\	.	.	.	8B-\	-bie	8B-\	-bie	.	8dd\	-bie	.
4r	4r	.	.	.	4r	.	4r	.	.	4r	.	.
=5	=5	=5	=5	=5	=5	=5	=5	=5	=5	=5	=5	=5
*	*	*	*	*	*	*ij	*	*ij	*	*	*ij	*
!LO:TX:t=P:problem=mixed beam	!	!	!	!	!	!	!	!	!	!	!	!
8EE-/L	8ggL 8ee- 8b-\	.	1ryy	1ryy	8B-\	Ko-	8e-\	Ko-	.	8gg\	Ko-	.
8E-\	8gg 8ee- 8b-\	.	.	.	8B-\	-rzą-	8e-\	-rzą-	.	8gg\	-rzą-	.
8E-\	8gg 8ee- 8b-\	.	.	.	8B-\	-cych	8e-\	-cych	.	8gg\	-cych	.
8E-\J	8ggJ 8ee- 8b-\	.	.	.	8B-\	sie	8e-\	sie	.	8gg\	sie	.
8E-\L	8ggL 8ee- 8b-\	.	.	.	8B-\	to-	8e-\	to-	.	8gg\	to-	.
8D\J	8ffJ 8dd 8b-\	.	.	.	8B-\	-bie	8d\	-bie	.	8ff\	-bie	.
*	*	*	*	*	*	*Xij	*	*Xij	*	*	*Xij	*
4r	4r	.	.	.	4r	.	4r	.	.	4r	.	.
!LO:LB:g=original	!LO:LB:g=original	!	!	!	!	!	!LO:LB:g=original	!	!	!	!	!
=6	=6	=6	=6	=6	=6	=6	=6	=6	=6	=6	=6	=6
2FF/	8ee-L 8cc\	.	1ryy	1ryy	8F\	wszech-	8c\	Wszech-	.	8ee-\	Wszech-	.
.	8cc 8a\	.	.	.	8F\	-mo-	8A\	-mo-	.	8cc\	-mo-	.
.	8dd 8b-\	.	.	.	8F\	-gą-	8B-\	-gą-	.	8dd\	-gą-	.
.	8ee-J 8cc\	.	.	.	8F\	-cy	8c\	-cy	.	8ee-\	-cy	.
!	!	!	!	!	!	!	!	!	!	!LO:LB:g=original	!	!
2F\	4ff 4dd\	.	.	.	2F\	Bo-	4d\	Bo-	.	4ff\	Bo-	.
.	16ffLL 16dd\	.	.	.	.	.	16d\LL	.	.	16ff\LL	.	.
.	16ee- 16cc\	.	.	.	.	.	16c\	.	.	16ee-\	.	.
.	16dd 16b-\	.	.	.	.	.	16B-\	.	.	16dd\	.	.
.	16ee-JJ 16cc\	.	.	.	.	.	16c\JJ	.	.	16ee-\JJ	.	.
!	!	!	!	!	!LO:LB:g=original	!	!	!	!	!	!	!
=7	=7	=7	=7	=7	=7	=7	=7	=7	=7	=7	=7	=7
4B- 4BB-\	4dd 4b-\	.	1ryy	1ryy	4B-\	-ze	4B-\	-ze	.	4dd\	-ze	.
4r	4r	.	.	.	4r	.	4r	.	.	4r	.	.
2r	2r	.	.	.	2r	.	2r	.	.	2r	.	.
=8	=8	=8	=8	=8	=8	=8	=8	=8	=8	=8	=8	=8
!LO:TX:t=P:problem=mixed beam	!	!	!	!	!	!	!	!	!	!	!	!
8FF/L	8ccL 8a\	.	1ryy	1ryy	8F\	O-	8A\	O-	.	8cc\	o-	.
8F\	8cc 8a\	.	.	.	8F\	-to	8A\	-to	.	8cc\	-to	.
8F\	8cc 8a\	.	.	.	8F\	nas	8A\	nas	.	8cc\	nas	.
8F\J	8ccJ 8a\	.	.	.	8F\	masz	8A\	mas[z]	.	8cc\	masz	.
*tremolo	*	*	*	*	*	*	*	*	*	*	*	*
8F\L	16cccLL 16aa\	.	.	.	2r	.	2r	.	.	2r	.	.
.	16bb- 16gg\	.	.	.	.	.	.	.	.	.	.	.
8F\	16aa 16ff\	.	.	.	.	.	.	.	.	.	.	.
.	16ggJJ 16ee-\	.	.	.	.	.	.	.	.	.	.	.
8F\	16ffLL 16dd\	.	.	.	.	.	.	.	.	.	.	.
.	16gg 16ee-\	.	.	.	.	.	.	.	.	.	.	.
8F\J	16ff 16dd\	.	.	.	.	.	.	.	.	.	.	.
.	16ee-JJ 16cc\	.	.	.	.	.	.	.	.	.	.	.
*Xtremolo	*	*	*	*	*	*	*	*	*	*	*	*
=9	=9	=9	=9	=9	=9	=9	=9	=9	=9	=9	=9	=9
*	*	*	*	*	*	*ij	*	*ij	*	*	*ij	*
!LO:TX:t=P:problem=mixed beam	!	!	!	!	!	!	!	!	!	!	!	!
8FF/L	8ddL 8b-\	.	1ryy	1ryy	8F\	O-	8B-\	O-	.	8dd\	o-	.
8F\	8dd 8b-\	.	.	.	8F\	-to	8B-\	-to	.	8dd\	-to	.
8F\	8dd 8b-\	.	.	.	8F\	nas	8B-\	nas	.	8dd\	nas	.
8F\J	8ddJ 8b-\	.	.	.	8F\	masz	8B-\	mas[z]	.	8dd\	masz	.
*tremolo	*	*	*	*	*	*	*	*	*	*	*	*
8F\L	16dddLL 16bb-\	.	.	.	2r	.	2r	.	.	2r	.	.
.	16ccc 16aa\	.	.	.	.	.	.	.	.	.	.	.
8F\	16bb- 16gg\	.	.	.	.	.	.	.	.	.	.	.
.	16aaJJ 16ff\	.	.	.	.	.	.	.	.	.	.	.
8F\	16bb-LL 16gg\	.	.	.	.	.	.	.	.	.	.	.
.	16aa 16ff\	.	.	.	.	.	.	.	.	.	.	.
8F\J	16gg 16ee-\	.	.	.	.	.	.	.	.	.	.	.
.	16ffJJ 16dd\	.	.	.	.	.	.	.	.	.	.	.
*Xtremolo	*	*	*	*	*	*	*	*	*	*	*	*
!LO:LB:g=original	!LO:LB:g=original	!	!	!	!	!	!	!	!	!	!	!
=10	=10	=10	=10	=10	=10	=10	=10	=10	=10	=10	=10	=10
!LO:TX:t=P:problem=mixed beam	!	!	!	!	!	!	!	!	!	!	!	!
8FF/L	8ee-L 8cc\	.	1ryy	1ryy	8F\	O-	8c\	O-	.	8cc\	o-	.
8F\	8ee- 8cc\	.	.	.	8F\	-to	8c\	-to	.	8cc\	-to	.
!	!	!	!	!	!	!	!	!	!	!LO:LB:g=original	!	!
8F\	8ee- 8cc\	.	.	.	8F\	nas	8c\	nas	.	8cc\	nas	.
8F\J	8ee-J 8cc\	.	.	.	8F\	masz	8c\	mas[z]	.	8cc\	masz	.
*tremolo	*	*	*	*	*	*	*	*	*	*	*Xij	*
8F\L	16eee-LL 16ccc\	.	.	.	2r	.	2r	.	.	2r	.	.
.	16ddd 16bb-\	.	.	.	.	.	.	.	.	.	.	.
8F\	16ccc 16aa\	.	.	.	.	.	.	.	.	.	.	.
.	16bb-JJ 16gg\	.	.	.	.	.	.	.	.	.	.	.
8F\	16aaLL 16ff\	.	.	.	.	.	.	.	.	.	.	.
.	16gg 16ee-\	.	.	.	.	.	.	.	.	.	.	.
8F\J	16ff 16dd\	.	.	.	.	.	.	.	.	.	.	.
.	16ee-JJ 16cc\	.	.	.	.	.	.	.	.	.	.	.
*Xtremolo	*	*	*	*	*	*	*	*	*	*	*	*
!	!	!	!	!	!	!	!LO:LB:g=original	!	!	!	!	!
=11	=11	=11	=11	=11	=11	=11	=11	=11	=11	=11	=11	=11
4B- 4BB-\	8ffL 8dd\	.	1ryy	1ryy	8B-\	O-	8d\	O-	.	8ff\	o-	.
.	8ff 8dd\	.	.	.	8B-\	-to	8d\	-to	.	8ff\	-to	.
4B- 4BB-\	8ff 8dd\	.	.	.	8B-\	nas	8d\	nas	.	8ff\	nas	.
.	8ffJ 8dd\	.	.	.	8B-\	masz	8d\	mas[z]	.	8ff\	masz	.
*	*	*	*	*	*	*Xij	*	*Xij	*	*	*	*
4A 4AA\	8ffL 8cc\	.	.	.	8A\	Ko-	8c\	Ko-	.	8ff\	Ko-	.
.	8ff 8cc\	.	.	.	8A\	-rzą-	8c\	-rzą-	.	8ff\	-rzą-	.
4A 4AA\	8gg 8cc\	.	.	.	8A\	-cych	8c\	-cych	.	8gg\	-cych	.
.	8aaJ 8cc\	.	.	.	8A\	sie	8c\	sie	.	8aa\	sie	.
=12	=12	=12	=12	=12	=12	=12	=12	=12	=12	=12	=12	=12
!LO:TX:t=P:problem=mixed beam	!	!	!	!	!	!	!	!	!	!	!	!
8GG/L	2bb- 2dd\	.	1ryy	1ryy	2G\	to-	2d\	w to-	.	2bb-\	to-	.
8G\	.	.	.	.	.	.	.	.	.	.	.	.
8G\	.	.	.	.	.	.	.	.	.	.	.	.
8G\J	.	.	.	.	.	.	.	.	.	.	.	.
!LO:TX:t=P:problem=mixed beam	!	!	!	!	!	!	!	!	!	!	!	!
8DD/L	2aa-X 2ff 2dd\	.	.	.	2D/	-bie	2f\	-bie	.	2aa-X\	-bie	.
8D\	.	.	.	.	.	.	.	.	.	.	.	.
8D\	.	.	.	.	.	.	.	.	.	.	.	.
8D\J	.	.	.	.	.	.	.	.	.	.	.	.
!	!	!	!	!	!LO:LB:g=original	!	!	!	!	!	!	!
=13	=13	=13	=13	=13	=13	=13	=13	=13	=13	=13	=13	=13
!LO:TX:t=P:problem=cała nuta na środku taktu	!	!	!	!	!	!	!	!	!	!	!	!
1E-	4gg 4ee-\	.	1ryy	1ryy	4E-\	Wszech-	4e-\	Wszech-	.	4gg\	wsze-	.
.	4ee- 4cc\	.	.	.	4E-\	-mo-	4c\	-mo-	.	4ee-\	-chmo-	.
!	!	!	!	!	!	!	!	!	!	!LO:LB:g=original	!	!
.	4gg 4ee-\	.	.	.	4E-\	-gą-	4e-\	-gą-	.	4gg\	-gą-	.
.	4ee- 4cc\	.	.	.	4E-\	-cy	4c\	-cy	.	4ee-\	-cy	.
=14	=14	=14	=14	=14	=14	=14	=14	=14	=14	=14	=14	=14
*tremolo	*	*	*	*	*	*	*	*	*	*	*	*
8F\L	2dd 2b-\	.	1ryy	1ryy	1F	Bo-	2B-\	Bo-	.	(2dd\	Bo-	.
8F\	.	.	.	.	.	.	.	.	.	.	.	.
8F\	.	.	.	.	.	.	.	.	.	.	.	.
8F\J	.	.	.	.	.	.	.	.	.	.	.	.
8FF/L	2cc 2a\	.	.	.	.	.	2A\	.	.	2cc\)	.	.
8FF/	.	.	.	.	.	.	.	.	.	.	.	.
8FF/	.	.	.	.	.	.	.	.	.	.	.	.
8FF/J	.	.	.	.	.	.	.	.	.	.	.	.
*Xtremolo	*	*	*	*	*	*	*	*	*	*	*	*
!LO:LB:g=original	!LO:LB:g=original	!	!	!	!	!	!	!	!	!	!	!
=15	=15	=15	=15	=15	=15	=15	=15	=15	=15	=15	=15	=15
4BB-/	4b-\	.	1ryy	1ryy	4BB-/	-ze	4B-\	-ze	.	4b-\	-że	.
4B- 4BB-\	4bb- 4ff 4dd\	.	.	.	4r	.	4r	.	.	4r	.	.
4B- 4BB-\	4bb- 4ff 4dd\	.	.	.	2r	.	2r	.	.	2r	.	.
4r	4r	.	.	.	.	.	.	.	.	.	.	.
=16	=16	=16	=16	=16	=16	=16	=16	=16	=16	=16	=16	=16
2BB-/	4.ff 4.dd\	.	1ryy	1ryy	4.d\	Wie-	0r	.	.	4.ff\	wie-	.
.	8ee- 8cc\	.	.	.	8c\	-my	.	.	.	8ee-\	-my	.
2G\	8ddL 8b-\	.	.	.	8B-\	irz	.	.	.	8dd\	isz	.
.	8dd 8b-\	.	.	.	8B-\	ie-	.	.	.	8dd\	ie-	.
.	8ee- 8cc\	.	.	.	8c\	-ze-	.	.	.	8ee-\	-ze-	.
.	8ffJ 8dd\	.	.	.	8d\	-li	.	.	.	8ff\	-li	.
=17	=17	=17	=17	=17	=17	=17	=17	=17	=17	=17	=17	=17
!LO:TX:t=P:problem=cała nuta na środku taktu	!	!	!	!	!	!	!	!	!	!	!	!
1E-	4.gg 4.ee-\	.	1ryy	1ryy	4.e-\	mi-	.	.	.	4.gg\	mi-	.
.	8ee- 8cc\	.	.	.	8c\	-ło-	.	.	.	8ee-\	-ło-	.
!	!	!	!	!	!	!	!	!	!	!LO:LB:g=original	!	!
.	8ddL 8bn\	.	.	.	8Bn\L	-sier-	.	.	.	8dd\L	-sier-	.
.	8ee-J 8cc\	.	.	.	8c\J	.	.	.	.	8ee-\J	.	.
.	4cc 4a\	.	.	.	4A\	-dzie	.	.	.	4cc\	-dzie	.
=18	=18	=18	=18	=18	=18	=18	=18	=18	=18	=18	=18	=18
!LO:TX:t=P:problem=cała nuta na środku taktu	!	!	!	!	!	!	!	!	!	!	!	!
1D	4.ff 4.dd\	.	1ryy	1ryy	4.d\	Nie	1r	.	.	4.ff\	nie	.
.	8dd 8b-X\	.	.	.	8B-\	od-	.	.	.	8dd\	od-	.
.	8ccL 8a\	.	.	.	8A\L	-pus-	.	.	.	8cc\L	-pus-	.
.	8ddJ 8b-\	.	.	.	8B-\J	.	.	.	.	8dd\J	.	.
.	4b- 4d/	.	.	.	4F\	-ci	.	.	.	4b-\	-ci	.
=19	=19	=19	=19	=19	=19	=19	=19	=19	=19	=19	=19	=19
*8ba	*	*	*	*	*	*	*	*	*	*	*	*
4AA\	4ee- 4cc 4a 4f\	.	1ryy	1ryy	4A\	spra-	4c\	Spra-	.	4ee-\	spra-	.
4AA\	4ee- 4cc 4a 4f\	.	.	.	4A\	-wie-	4c\	-wie-	.	4ee-\	-wie-	.
!	!	!	!	!	!	!	!LO:LB:g=original	!	!	!	!	!
4AA\	4ee- 4cc 4a 4f\	.	.	.	4A\	-dli-	4c\	-dli-	.	4ee-\	-dli-	.
4BB-\	4dd 4b- 4g\	.	.	.	4B-\	-wość	4B-\	-wosc	.	4dd\	-wosc	.
!LO:LB:g=original	!LO:LB:g=original	!	!	!	!LO:LB:g=original	!	!	!	!	!	!	!
=20	=20	=20	=20	=20	=20	=20	=20	=20	=20	=20	=20	=20
*	*	*	*	*	*	*ij	*	*ij	*	*	*ij	*
4E-\	4gg 4ee- 4b-\	.	1ryy	1ryy	4B-\	spra-	4e-\	Spra-	.	4gg\	spra-	.
4E-\	4gg 4ee- 4b-\	.	.	.	4B-\	-wie-	4e-\	-wie-	.	4gg\	-wie-	.
4E-\	4gg 4ee- 4b-\	.	.	.	4B-\	-dli-	4e-\	-dli-	.	4gg\	-dli-	.
4D\	4ff 4dd 4b-\	.	.	.	4B-\	-wość	4d\	-wosc	.	4ff\	-wosc	.
*X8ba	*	*	*	*	*	*Xij	*	*Xij	*	*	*Xij	*
!	!	!	!	!	!	!	!	!	!	!LO:LB:g=original	!	!
=21	=21	=21	=21	=21	=21	=21	=21	=21	=21	=21	=21	=21
!	!LO:SIC:v:n=3:s=2f#\	!	!	!	!	!	!	!	!	!	!	!
2c 2C\	2ee- 2cc 2f\	.	1ryy	1ryy	2F#X\	słu-	2c\	słu-	.	2ee-\	słu-	.
4B- 4BB-\	4dd 4b- 4f\	.	.	.	2G\	-s[z]nie	4B-\	-sznie	.	4dd\	-sznie	.
4r	4r	.	.	.	.	.	4r	.	.	4r	.	.
=22	=22	=22	=22	=22	=22	=22	=22	=22	=22	=22	=22	=22
!LO:TX:t=P:problem=cała nuta na środku taktu	!	!	!	!	!	!	!	!	!	!	!	!
1E- 1EE-	4cc 4g\	.	1ryy	1ryy	4E-\	za-	4G/	nas	.	4cc\	nas	.
.	4gg 4ee-\	.	.	.	4E-\	.	4e-\	za-	.	4gg\	za-	.
.	4ff 4dd\	.	.	.	4D\	-gu-	4d\	-gu-	.	4ff\	-gu-	.
.	4ee- 4cc\	.	.	.	4E-\	-bic	4c\	-bic	.	4ee-\	-bic	.
=23	=23	=23	=23	=23	=23	=23	=23	=23	=23	=23	=23	=23
!LO:TX:t=P:problem=mixed beam	!	!	!	!	!	!	!	!	!	!	!	!
8FF/L	(2dd 2b-\	.	1ryy	1ryy	1F	mo-	(2B-\	mo-	.	(2dd\	mo-	.
8F\	.	.	.	.	.	.	.	.	.	.	.	.
8F\	.	.	.	.	.	.	.	.	.	.	.	.
8F\J	.	.	.	.	.	.	.	.	.	.	.	.
*tremolo	*	*	*	*	*	*	*	*	*	*	*	*
8F\L	2cc 2a\)	.	.	.	.	.	2A\)	.	.	2cc\)	.	.
8F\	.	.	.	.	.	.	.	.	.	.	.	.
8F\	.	.	.	.	.	.	.	.	.	.	.	.
8F\J	.	.	.	.	.	.	.	.	.	.	.	.
*Xtremolo	*	*	*	*	*	*	*	*	*	*	*	*
=24	=24	=24	=24	=24	=24	=24	=24	=24	=24	=24	=24	=24
4B- 4BB-\	4b-\	.	1ryy	1ryy	4BB-/	-ze	4B-\	-ze	.	4b-\	-ze	.
4B- 4BB-\	4bb- 4ff 4dd\	.	.	.	4r	.	4r	.	.	4r	.	.
4B- 4BB-\	4bb- 4ff 4dd\	.	.	.	2r	.	2r	.	.	2r	.	.
4r	4r	.	.	.	.	.	.	.	.	.	.	.
=25	=25	=25	=25	=25	=25	=25	=25	=25	=25	=25	=25	=25
*	*	*	*	*	*clefC4	*	*	*	*	*	*	*
!	!	!	!	!	!LO:TX:a:rj:t=Solo	!	!	!	!	!	!	!
2BB-/	4.dd 4.f/	.	1ryy	1ryy	4.dd\	Wie-	4.d\	Wie-	.	0r	.	.
.	8cc 8e-/	.	.	.	8cc\	-my	8c\	-my	.	.	.	.
2B-\	8b-L 8d/	.	.	.	8b-\	irz	8B-\	iz	.	.	.	.
.	8b- 8d/	.	.	.	8b-\	ie-	8B-\	ie-	.	.	.	.
.	8cc 8e-/	.	.	.	8cc\	-ze-	8c\	-ze-	.	.	.	.
.	8ddJ 8f/	.	.	.	8dd\	-li	8d\	-li	.	.	.	.
!	!	!	!	!	!	!	!LO:LB:g=original	!	!	!	!	!
=26	=26	=26	=26	=26	=26	=26	=26	=26	=26	=26	=26	=26
!LO:TX:t=P:problem=cała nuta na środku taktu	!	!	!	!	!	!	!	!	!	!	!	!
1E-	4.ee- 4.g/	.	1ryy	1ryy	4.ee-\	mi-	4.e-\	mi-	.	.	.	.
.	8cc 8e-/	.	.	.	8cc\	-ło-	8c\	-ło-	.	.	.	.
!	!	!	!	!	!LO:SIC:v:s=8bn\L	!	!	!	!	!	!	!
.	8bnL 8d/	.	.	.	8b-\L	-sier-	8Bn\L	-sier-	.	.	.	.
.	8ccJ 8e-/	.	.	.	8cc\J	.	8c\J	.	.	.	.	.
.	4a 4c/	.	.	.	4a\	-dzie	4A\	-dzie	.	.	.	.
!LO:LB:g=original	!LO:LB:g=original	!	!	!	!LO:LB:g=original	!	!	!	!	!	!	!
=27	=27	=27	=27	=27	=27	=27	=27	=27	=27	=27	=27	=27
!LO:TX:t=P:problem=cała nuta na środku taktu	!	!	!	!	!	!	!	!	!	!	!	!
1D	4.dd 4.f/	.	1ryy	1ryy	4.dd\	Nie	4.d\	nie	.	1r	.	.
.	8b-X 8d/	.	.	.	8b-\	od-	8B-X\	od-	.	.	.	.
.	8aL 8c/	.	.	.	8a\L	-pus-	8A\L	-pus-	.	.	.	.
.	8b-J 8d/	.	.	.	8b-\J	.	8B-\J	.	.	.	.	.
.	4f 4d/	.	.	.	4f\	-ci	4F/	-ci	.	.	.	.
!	!	!	!	!	!	!	!	!	!	!LO:PB:g=original	!	!
=28	=28	=28	=28	=28	=28	=28	=28	=28	=28	=28	=28	=28
*	*	*	*	*	*clefF4	*	*	*	*	*	*	*
4A\	4ee- 4cc 4a 4f\	.	1ryy	1ryy	4A\	Spra-	4c\	spra-	.	4ee-\	Spra-	.
4A\	4ee- 4cc 4a 4f\	.	.	.	4A\	-wie-	4c\	-wie-	.	4ee-\	-wie-	.
4A\	4ee- 4cc 4a 4f\	.	.	.	4A\	-dli-	4c\	-dli-	.	4ee-\	-dli-	.
!	!	!	!	!	!LO:SIC:v:s=4G\	!	!	!	!	!LO:SIC:v:s=4dd\	!	!
4B-\	4dd 4b- 4g\	.	.	.	4A\	-wosc	4B-\	-wość	.	4ee-\	-wosc	.
=29	=29	=29	=29	=29	=29	=29	=29	=29	=29	=29	=29	=29
*	*	*	*	*	*	*ij	*	*ij	*	*	*ij	*
4e-\	4gg 4ee- 4b-\	.	1ryy	1ryy	4B-\	Spra-	4e-\	spra-	.	4gg\	Spra-	.
4e-\	4gg 4ee- 4b-\	.	.	.	4B-\	-wie-	4e-\	-wie-	.	4gg\	-wie-	.
4e-\	4gg 4ee- 4b-\	.	.	.	4B-\	-dli-	4e-\	-dli-	.	4gg\	-dli-	.
4d\	4ff 4dd 4b-\	.	.	.	4B-\	-wosc	4d\	-wość	.	4ff\	-wosc	.
*	*	*	*	*	*	*Xij	*	*Xij	*	*	*Xij	*
=30	=30	=30	=30	=30	=30	=30	=30	=30	=30	=30	=30	=30
2e- 2E-\	2aa 2cc\	.	1ryy	1ryy	4F\	słu-	2c\	słu-	.	2aa\	słu-	.
.	.	.	.	.	4F#X\	.	.	.	.	.	.	.
2d 2D\	2bb-X 2dd\	.	.	.	2G\	-sznie	2d\	-sznie	.	2bb-X\	-s[z]nie	.
=31	=31	=31	=31	=31	=31	=31	=31	=31	=31	=31	=31	=31
2e- 2E-\	4gg 4ee-\	.	1ryy	1ryy	4E-\	nas	4e-\	nas	.	4gg\	nas	.
.	4gg 4ee-\	.	.	.	4E-\	za-	4e-\	za-	.	4gg\	za-	.
2r	4ff 4dd\	.	.	.	4D\	-gu-	4d\	-gu-	.	4ff\	-gu-	.
.	4ee- 4cc\	.	.	.	4E-\	-bic	4c\	-bic	.	4ee-\	-bic	.
=32	=32	=32	=32	=32	=32	=32	=32	=32	=32	=32	=32	=32
8F\L	(2dd 2b-\	.	1ryy	1ryy	1F	mo-	2B-\	mo-	.	2dd\	mo-	.
8F\	.	.	.	.	.	.	.	.	.	.	.	.
8F\	.	.	.	.	.	.	.	.	.	.	.	.
8F\J	.	.	.	.	.	.	.	.	.	.	.	.
*tremolo	*	*	*	*	*	*	*	*	*	*	*	*
8F\L	2cc 2a\)	.	.	.	.	.	2A\	.	.	2cc\	.	.
8F\	.	.	.	.	.	.	.	.	.	.	.	.
8F\	.	.	.	.	.	.	.	.	.	.	.	.
8F\J	.	.	.	.	.	.	.	.	.	.	.	.
*Xtremolo	*	*	*	*	*	*	*	*	*	*	*	*
!	!	!	!	!	!	!	!	!	!	!LO:LB:g=original	!	!
=33	=33	=33	=33	=33	=33	=33	=33	=33	=33	=33	=33	=33
4BB-/	4b-/	.	1ryy	1ryy	4BB-/	-ze	4B-\	-ze	.	4b-\	-ze	.
4B-\	4r	.	.	.	4r	.	4r	.	.	4r	.	.
2r	2r	.	.	.	4B-\	Spra-	2r	.	.	2r	.	.
.	.	.	.	.	4B-\	-wie-	.	.	.	.	.	.
!	!	!	!	!	!	!	!LO:LB:g=original	!	!	!	!	!
=34	=34	=34	=34	=34	=34	=34	=34	=34	=34	=34	=34	=34
2r	2r	.	1ryy	1ryy	4B-\	-dli-	2r	.	.	2r	.	.
.	.	.	.	.	4BB-/	-wosc	.	.	.	.	.	.
2E-\	2gg 2ee- 2b-\	.	.	.	2r	.	2e-\	słu-	.	2gg\	słu-	.
!LO:LB:g=original	!LO:LB:g=original	!	!	!	!LO:LB:g=original	!	!	!	!	!	!	!
=35	=35	=35	=35	=35	=35	=35	=35	=35	=35	=35	=35	=35
2D\	2ff 2dd 2b-\	.	1ryy	1ryy	0r	.	2d\	-s[z]nie	.	2ff\	-s[z]nie	.
2E-\	4cc 4e-\	.	.	.	.	.	4e-\	nas	.	4cc\	nas	.
.	4ee- 4g\	.	.	.	.	.	4c\	za-	.	4ee-\	za-	.
=36	=36	=36	=36	=36	=36	=36	=36	=36	=36	=36	=36	=36
2E-\	4dd 4f\	.	1ryy	1ryy	.	.	4f\	-gu-	.	4dd\	-gu-	.
.	4cc 4e-\	.	.	.	.	.	4e-\	-bic	.	4cc\	-bic	.
*tremolo	*	*	*	*	*	*	*	*	*	*	*	*
8F\L	(>2b- 2d/	.	.	.	.	.	2d\	mo-	.	2b-\	mo-	.
8F\	.	.	.	.	.	.	.	.	.	.	.	.
8F\	.	.	.	.	.	.	.	.	.	.	.	.
8F\J	.	.	.	.	.	.	.	.	.	.	.	.
=37	=37	=37	=37	=37	=37	=37	=37	=37	=37	=37	=37	=37
8FF/L	2a 2c/)	.	1ryy	1ryy	1r	.	2c\	.	.	2a\	.	.
8FF/	.	.	.	.	.	.	.	.	.	.	.	.
8FF/	.	.	.	.	.	.	.	.	.	.	.	.
8FF/J	.	.	.	.	.	.	.	.	.	.	.	.
*Xtremolo	*	*	*	*	*	*	*	*	*	*	*	*
4BB-/	4b- 4d/	.	.	.	.	.	4d\	-ze	.	4b-\	-ze	.
4B-\	4r	.	.	.	.	.	4r	.	.	4r	.	.
=38	=38	=38	=38	=38	=38	=38	=38	=38	=38	=38	=38	=38
1r	1r	.	1ryy	1ryy	4B-\	Spra-	1r	.	.	1r	.	.
.	.	.	.	.	4B-\	-wie-	.	.	.	.	.	.
.	.	.	.	.	4B-\	-dli-	.	.	.	.	.	.
.	.	.	.	.	4BB-/	-wośc	.	.	.	.	.	.
=39||:	=39||:	=39	=39	=39	=39	=39	=39	=39	=39	=39	=39	=39
2E-\	2gg 2ee- 2b-\	.	1ryy	1ryy	00r	.	2e-\	słu-	.	2gg\	słu-	.
2D\	2ff 2dd 2b-\	.	.	.	.	.	2d\	-s[z]nie	.	2ff\	-sznie	.
!	!	!	!	!	!	!	!	!	!	!LO:LB:g=original	!	!
=40	=40	=40	=40	=40	=40	=40	=40	=40	=40	=40	=40	=40
2E-\	4cc 4g\	.	1ryy	1ryy	.	.	4G/	nas	.	4ee-\	nas	.
.	4gg 4ee-\	.	.	.	.	.	4e-\	za-	.	4gg\	za-	.
2r	4ff 4dd\	.	.	.	.	.	4d\	-gu-	.	4ff\	-gu-	.
.	4ee- 4cc\	.	.	.	.	.	4c\	-bic	.	4ee-\	-bic	.
=41	=41	=41	=41	=41	=41	=41	=41	=41	=41	=41	=41	=41
*tremolo	*	*	*	*	*	*	*	*	*	*	*	*
8F\L	(2dd 2b-\	.	1ryy	1ryy	.	.	(2B-\	mo-	.	2dd\	mo-	.
8F\	.	.	.	.	.	.	.	.	.	.	.	.
8F\	.	.	.	.	.	.	.	.	.	.	.	.
8F\J	.	.	.	.	.	.	.	.	.	.	.	.
8FF/L	2cc 2a\)	.	.	.	.	.	2A\)	.	.	2cc\	.	.
8FF/	.	.	.	.	.	.	.	.	.	.	.	.
8FF/	.	.	.	.	.	.	.	.	.	.	.	.
8FF/J	.	.	.	.	.	.	.	.	.	.	.	.
*Xtremolo	*	*	*	*	*	*	*	*	*	*	*	*
=42	=42	=42	=42	=42	=42	=42	=42	=42	=42	=42	=42	=42
4BB-/	4b-\	.	1ryy	1ryy	.	.	4B-\	-ze	.	4b-\	-ze	.
4B- 4BB-\	4bb- 4ff 4dd\	.	.	.	.	.	4r	.	.	4r	.	.
4B- 4BB-\	4bb- 4ff 4dd\	.	.	.	.	.	2r	.	.	2r	.	.
4r	4r	.	.	.	.	.	.	.	.	.	.	.
!	!	!	!	!	!	!	!LO:PB:g=original	!	!	!	!	!
=43	=43	=43	=43	=43	=43	=43	=43	=43	=43	=43	=43	=43
*	*	*	*	*	*clefC3	*	*	*	*	*	*	*
4FF/	8ccL 8a\	.	1ryy	1ryy	8a\	Wie-	00r	.	.	8cc\	wie-	.
.	8b- 8g\	.	.	.	8g\	-my	.	.	.	8b-\	-my	.
4F\	8a 8f\	.	.	.	8f\	irz	.	.	.	8a\	isz	.
.	8aJ 8f\	.	.	.	8f\	ie-	.	.	.	8a\	ie-	.
!LO:LB:g=original	!LO:LB:g=original	!	!	!	!	!	!	!	!	!LO:TX:t=P:problem=brak 8a	!	!
4F\	8aL 8f\	.	.	.	8f\	-rze-	.	.	.	8a\yy	.	.
.	8b- 8g\	.	.	.	8g\	-li	.	.	.	8b-\	-ze-	.
4F\	8cc 8a\	.	.	.	8a\	mi-	.	.	.	8cc\	-li	.
.	8ddJ 8b-\	.	.	.	8b-\	-ło-	.	.	.	8dd\	miło-	.
=44	=44	=44	=44	=44	=44||:	=44	=44	=44	=44	=44	=44	=44
4F\	2ee- 2cc\	.	1ryy	1ryy	2cc\	-sier-	.	.	.	2ee-\	-sier-	.
4F\	.	.	.	.	.	.	.	.	.	.	.	.
!	!	!	!	!	!	!	!	!	!	!LO:LB:g=original	!	!
4F\	4cc 4a\	.	.	.	4a\	-dzie	.	.	.	4cc\	-dzie	.
4F\	8ccL 8a\	.	.	.	8a\	mi-	.	.	.	8cc\	mi-	.
.	8ddJ 8b-\	.	.	.	8b-\	-ło-	.	.	.	8dd\	-ło-	.
=45	=45	=45	=45	=45	=45:||	=45	=45	=45	=45	=45	=45	=45
!	!	!	!	!	!LO:TX:t=P:problem=t. 45 zapisany repetycją	!	!	!	!	!	!	!
4F\	2ee- 2cc\	.	1ryy	1ryy	2cc\yy	-sier-	.	.	.	2ee-\	-sier-	.
4F\	.	.	.	.	.	.	.	.	.	.	.	.
4F\	4cc 4a\	.	.	.	4a\yy	-dzie	.	.	.	4cc\	-dzie	.
4F\	8ccL 8a\	.	.	.	8a\yy	mi-	.	.	.	8cc\	mi-	.
.	8ddJ 8b-\	.	.	.	8b-\yy	-ło-	.	.	.	8dd\	-ło-	.
=46	=46	=46	=46	=46	=46	=46	=46	=46	=46	=46	=46	=46
4F\	4ee- 4cc\	.	1ryy	1ryy	4cc\	-sier-	.	.	.	4ee-\	-sier-	.
4r	4cc 4a\	.	.	.	4a\	-dzie	.	.	.	4cc\	-dzie	.
2r	4ff 4dd\	.	.	.	4dd	nie	.	.	.	4ff\	nie	.
.	.	.	.	.	.	.	.	.	.	.	.	.
.	4ee- 4cc\	.	.	.	4cc\	od-	.	.	.	4ee-\	od-	.
.	.	.	.	.	.	.	.	.	.	.	.	.
=47	=47	=47	=47	=47	=47	=47	=47	=47	=47	=47	=47	=47
!LO:TX:t=P:problem=mixed beam	!	!	!	!	!	!	!	!	!	!	!	!
8B-\L	4ee- 4cc\	.	1ryy	1ryy	4cc\	-pus-	00r	.	.	4ee-\	-pus-	.
8BB-/	.	.	.	.	.	.	.	.	.	.	.	.
8D/	4dd 4b-\	.	.	.	4b-\	-ci	.	.	.	4dd\	-ci	.
8F/J	.	.	.	.	.	.	.	.	.	.	.	.
!	!	!	!	!	!LO:N:vis=4	!	!	!	!	!	!	!
4B-\	4r	.	.	.	8r	.	.	.	.	4r	.	.
!	!	!	!	!	!LO:LB:g=original	!	!	!	!	!	!	!
!	!	!	!	!	!LO:TX:t=P:problem=zbędna 4r	!	!	!	!	!	!	!
!	!	!	!	!	!LO:N:vis=4	!	!	!	!	!	!	!
.	.	.	.	.	8r	.	.	.	.	.	.	.
4r	8ddL 8b-\	.	.	.	8b-\	spra-	.	.	.	8dd\	Spra-	.
.	8ee-J 8cc\	.	.	.	8cc\	-wie-	.	.	.	8ee-\	-wie-	.
!	!	!	!	!	!	!	!	!	!	!LO:LB:g=original	!	!
=48	=48	=48	=48	=48	=48	=48	=48	=48	=48	=48	=48	=48
4BB-/	2ff 2dd\	.	1ryy	1ryy	2dd\	-dli-	.	.	.	2ff\	-dli-	.
4B-\	.	.	.	.	.	.	.	.	.	.	.	.
4B-\	4dd 4b-\	.	.	.	4b-\	-wosc	.	.	.	4dd\	-wość	.
*	*	*	*	*	*	*ij	*	*	*	*	*ij	*
4B-\	8ddL 8b-\	.	.	.	8b-\	spra-	.	.	.	8dd\	Spra-	.
.	8ee-J 8cc\	.	.	.	8cc\	-wie-	.	.	.	8ee-\	-wie-	.
=49	=49	=49	=49	=49	=49	=49	=49	=49	=49	=49	=49	=49
4BB-/	2ff 2dd\	.	1ryy	1ryy	2dd\	-dli-	.	.	.	2ff\	-dli-	.
4B-\	.	.	.	.	.	.	.	.	.	.	.	.
4B-\	4dd 4b-\	.	.	.	4b-\	-wosc	.	.	.	4dd\	-wość	.
*	*	*	*	*	*	*Xij	*	*	*	*	*Xij	*
4B-\	8ddL 8b-\	.	.	.	8b-\	słu-	.	.	.	8dd\	słu-	.
.	8ee-J 8cc\	.	.	.	8cc\	-sznie	.	.	.	8ee-\	-sznie	.
!LO:LB:g=original	!LO:LB:g=original	!	!	!	!	!	!	!	!	!	!	!
=50	=50	=50	=50	=50	=50	=50	=50	=50	=50	=50	=50	=50
4BB-/	4ff 4dd\	.	1ryy	1ryy	4dd\	nas	.	.	.	4ff\	nas	.
4B-\	4ff 4dd\	.	.	.	4dd\	za-	.	.	.	4ff\	za-	.
4A\	4ee- 4cc\	.	.	.	4cc\	-gu-	.	.	.	4ee-\	-gu-	.
4B-\	4dd 4b-\	.	.	.	4b-\	-bic	.	.	.	4dd\	-bic	.
=51	=51	=51	=51	=51	=51	=51	=51	=51	=51	=51	=51	=51
4F\	16ee-LL 16cc\	.	1ryy	1ryy	16cc\LL	mo-	0r	.	.	16ee-\LL	mo-	.
.	16dd 16b-\	.	.	.	16b-\	.	.	.	.	16dd\	.	.
.	16cc 16a\	.	.	.	16a\	.	.	.	.	16cc\	.	.
.	16ddJJ 16b-\	.	.	.	16b-\JJ	.	.	.	.	16dd\JJ	.	.
4FF/	4cc 4a\	.	.	.	4a\	-ze	.	.	.	4cc\	-ze	.
4F\	2r	.	.	.	2r	.	.	.	.	2r	.	.
4r	.	.	.	.	.	.	.	.	.	.	.	.
=52	=52	=52	=52	=52	=52	=52	=52	=52	=52	=52	=52	=52
!	!	!	!	!	!	!	!	!	!	!LO:TX:a:t=1	!	!
1r	1r	.	1ryy	1ryy	4a\	spra-	.	.	.	1r	.	.
.	.	.	.	.	4a\	-wie-	.	.	.	.	.	.
.	.	.	.	.	4a\	-dli-	.	.	.	.	.	.
.	.	.	.	.	4A/	-wosc	.	.	.	.	.	.
!	!	!	!	!	!	!	!	!	!	!LO:LB:g=original	!	!
=53:||	=53:||	=53	=53	=53	=53	=53	=53	=53	=53	=53	=53	=53
!	!LO:TX:t=P:problem=t. 53-66 zapisane repetycją	!	!	!	!	!	!	!	!	!	!	!
2E-\yy	2ggyy 2ee-yy 2b-\yy	.	1ryy	1ryy	00r	.	2e-\	słu-	.	2gg\	Słu-	.
2D\yy	2ffyy 2ddyy 2b-\yy	.	.	.	.	.	2d\	-s[z]nie	.	2ff\	-sznie	.
=54	=54	=54	=54	=54	=54	=54	=54	=54	=54	=54	=54	=54
2E-\yy	4ccyy 4g\yy	.	1ryy	1ryy	.	.	4G/	nas	.	4ee-\	nas	.
.	4ggyy 4ee-\yy	.	.	.	.	.	4e-\	za-	.	4gg\	za-	.
2ryy	4ffyy 4dd\yy	.	.	.	.	.	4d\	-gu-	.	4ff\	-gu-	.
.	4ee-yy 4cc\yy	.	.	.	.	.	4c\	-bic	.	4ee-\	-bic	.
=55	=55	=55	=55	=55	=55	=55	=55	=55	=55	=55	=55	=55
*tremolo	*	*	*	*	*	*	*	*	*	*	*	*
8F\Lyy	(y2ddyy 2b-\yy	.	1ryy	1ryy	.	.	(2B-\	mo-	.	2dd\	mo-	.
8F\yy	.	.	.	.	.	.	.	.	.	.	.	.
8F\yy	.	.	.	.	.	.	.	.	.	.	.	.
8F\Jyy	.	.	.	.	.	.	.	.	.	.	.	.
8FF/Lyy	2ccyy 2a\)yy	.	.	.	.	.	2A\)	.	.	2cc\	.	.
8FF/yy	.	.	.	.	.	.	.	.	.	.	.	.
8FF/yy	.	.	.	.	.	.	.	.	.	.	.	.
8FF/Jyy	.	.	.	.	.	.	.	.	.	.	.	.
*Xtremolo	*	*	*	*	*	*	*	*	*	*	*	*
=56	=56	=56	=56	=56	=56	=56	=56	=56	=56	=56	=56	=56
4BB-/yy	4b-\yy	.	1ryy	1ryy	.	.	4B-\	-ze	.	4b-\	-ze	.
4B-yy 4BB-\yy	4bb-yy 4ffyy 4dd\yy	.	.	.	.	.	4r	.	.	4r	.	.
4B-yy 4BB-\yy	4bb-yy 4ffyy 4dd\yy	.	.	.	.	.	2r	.	.	2r	.	.
4ryy	4ryy	.	.	.	.	.	.	.	.	.	.	.
*	*	*	*	*	*clefF4	*	*	*	*	*	*	*
=57	=57	=57	=57	=57	=57	=57	=57	=57	=57	=57	=57	=57
!	!	!	!	!	!LO:TX:t=P:problem=brak zmiany klucza na basowy	!	!LO:TX:a:t=Solo	!	!	!	!	!
4FF/yy	8ccL 8a\yy	.	1ryy	1ryy	8A\	wie-	8c\	Wie-	.	8cc\	wie-	.
.	8b- 8g\yy	.	.	.	8G\	-my	8B-\	-my	.	8b-\	-my	.
!	!	!	!	!	!LO:LB:g=original	!	!	!	!	!	!	!
4F\yy	8a 8f\yy	.	.	.	8F\	irz	8A\	iż	.	8a\	isz	.
.	8aJ 8f\yy	.	.	.	8F\	ie-	8A\	ie-	.	8a\	ie-	.
4F\yy	8aL 8f\yy	.	.	.	8F\	-ze-	8A\	-ze-	.	8a\	-ze-	.
!	!	!	!	!	!	!	!	!	!	!LO:LB:g=original	!	!
.	8b- 8g\yy	.	.	.	8G\	-li	8B-\	-li	.	8b-\	-li	.
4F\yy	8cc 8a\yy	.	.	.	8A\	mi-	8c\	mi-	.	8cc\	mi-	.
.	8ddJ 8b-\yy	.	.	.	8B-\	-ło-	8d\	-ło-	.	8dd\	-ło-	.
!	!	!	!	!	!	!	!LO:LB:g=original	!	!	!	!	!
=58	=58	=58	=58	=58	=58||:	=58	=58	=58	=58	=58	=58	=58
4F\yy	2ee-yy 2cc\yy	.	1ryy	1ryy	2c\	-sier-	2e-\	-sier-	.	2ee-\	-sier-	.
4F\yy	.	.	.	.	.	.	.	.	.	.	.	.
4F\yy	4ccyy 4a\yy	.	.	.	4A\	-dzie	4c\	-dzie	.	4cc\	-dzie	.
4F\yy	8ccL 8a\yy	.	.	.	8A\	mi-	8c\	mi-	.	8cc\	mi-	.
.	8ddJ 8b-\yy	.	.	.	8B-\	-ło-	8d\	-ło-	.	8dd\	-ło-	.
=59	=59	=59	=59	=59	=59:||	=59	=59	=59	=59	=59	=59	=59
!	!	!	!	!	!LO:TX:t=P:problem=t. 59 zapisany repetycją	!	!	!	!	!	!	!
4F\yy	2ee-yy 2cc\yy	.	1ryy	1ryy	2c\yy	-sier-	2e-\	-sier-	.	2ee-\	-sier-	.
4F\yy	.	.	.	.	.	.	.	.	.	.	.	.
4F\yy	4ccyy 4a\yy	.	.	.	4A\yy	-dzie	4c\	-dzie	.	4cc\	-dzie	.
4F\yy	8ccLyy 8a\yy	.	.	.	8A\yy	mi-	8c\	mi-	.	8cc\	mi-	.
.	8ddJyy 8b-\yy	.	.	.	8B-\yy	-ło-	8d\	-ło-	.	8dd\	-ło-	.
=60	=60	=60	=60	=60	=60	=60	=60	=60	=60	=60	=60	=60
4F\yy	4ee-yy 4cc\yy	.	1ryy	1ryy	4c\	-sier-	4e-\	-sier-	.	4ee-\	-sier-	.
4ryy	4ccyy 4a\yy	.	.	.	4A\	-dzie	4c\	-dzie	.	4cc\	-dzie	.
2ryy	4ffyy 4dd\yy	.	.	.	4d\	nie	4f\	nie	.	4ff\	nie	.
.	4ee-yy 4cc\yy	.	.	.	4c\	od-	4e-\	od-	.	4ee-\	od-	.
!	!	!	!	!	!	!	!	!	!	!LO:LB:g=original	!	!
=61	=61	=61	=61	=61	=61	=61	=61	=61	=61	=61	=61	=61
!LO:TX:t=P:problem=mixed beam	!	!	!	!	!	!	!	!	!	!	!	!
8B-\Lyy	4ee-yy 4cc\yy	.	1ryy	1ryy	4c\	-pus-	4e-\	-pus-	.	4ee-\	-pus-	.
8BB-/yy	.	.	.	.	.	.	.	.	.	.	.	.
8D/yy	4ddyy 4b-\yy	.	.	.	4B-\	-ci	4d\	-ci	.	4dd\	-ci	.
8F/Jyy	.	.	.	.	.	.	.	.	.	.	.	.
4B-\yy	4ryy	.	.	.	4r	.	4r	.	.	4r	.	.
4ryy	8ddL 8b-\yy	.	.	.	8B-\	spra-	8d\	spra-	.	8dd\	spra-	.
.	8ee-J 8cc\yy	.	.	.	8c\	-wie-	8e-\	-wie-	.	8ee-\	-wie-	.
=62	=62	=62	=62	=62	=62	=62	=62	=62	=62	=62	=62	=62
4BB-/yy	2ffyy 2dd\yy	.	1ryy	1ryy	2d\	-dli-	2f\	-dli-	.	2ff\	-dli-	.
4B-\yy	.	.	.	.	.	.	.	.	.	.	.	.
4B-\yy	4ddyy 4b-\yy	.	.	.	4B-\	-wosc	4d\	-wość	.	4dd\	-wość	.
*	*	*	*	*	*	*ij	*	*	*	*	*ij	*
4B-\yy	8ddLyy 8b-\yy	.	.	.	8B-\	spra-	8d\	spra-	.	8dd\	spra-	.
.	8ee-Jyy 8cc\yy	.	.	.	8c\	-wie-	8e-\	-wie-	.	8ee-\	-wie-	.
!	!	!	!	!	!	!	!LO:LB:g=original	!	!	!	!	!
=63	=63	=63	=63	=63	=63	=63	=63	=63	=63	=63	=63	=63
4BB-/yy	2ffyy 2dd\yy	.	1ryy	1ryy	2d\	-dli-	2f\	-dli-	.	2ff\	-dli-	.
4B-\yy	.	.	.	.	.	.	.	.	.	.	.	.
4B-\yy	4ddyy 4b-\yy	.	.	.	4B-\	-wosc	4d\	-wość	.	4dd\	-wość	.
*	*	*	*	*	*	*Xij	*	*	*	*	*Xij	*
!	!	!	!	!	!LO:LB:g=original	!	!	!	!	!	!	!
4B-\yy	8ddL 8b-\yy	.	.	.	8B-\	słu-	8d\	słu-	.	8dd\	słu-	.
!	!	!	!	!	!LO:TX:t=P:problem=wykreślony takt	!	!	!	!	!	!	!
.	8ee-J 8cc\yy	.	.	.	8c\	-s[z]nie	8e-\	-s[z]nie	.	8ee-\	-sznie	.
=64	=64	=64	=64	=64	=64	=64	=64	=64	=64	=64	=64	=64
4BB-/yy	4ffyy 4dd\yy	.	1ryy	1ryy	4d\	nas	4f\	nas	.	4ff\	nas	.
4B-\yy	4ffyy 4dd\yy	.	.	.	4d\	za-	4f\	za-	.	4ff\	za-	.
!	!	!	!	!	!	!	!	!	!	!LO:LB:g=original	!	!
4A\yy	4ee-yy 4cc\yy	.	.	.	4c\	-gu-	4e-\	-gu-	.	4ee-\	-gu-	.
4B-\yy	4ddyy 4b-\yy	.	.	.	4B-\	-bic	4d\	-bic	.	4dd\	-bic	.
=65	=65	=65	=65	=65	=65	=65	=65	=65	=65	=65	=65	=65
4F\yy	16ee-LL 16cc\yy	.	1ryy	1ryy	16c\LL	mo-	16e-\LL	mo-	.	16ee-\LL	mo-	.
.	16dd 16b-\yy	.	.	.	16B-\	.	16d\	.	.	16dd\	.	.
.	16cc 16a\yy	.	.	.	16A\	.	16c\	.	.	16cc\	.	.
.	16ddJJ 16b-\yy	.	.	.	16B-\JJ	.	16d\JJ	.	.	16dd\JJ	.	.
4FF/yy	4ccyy 4a\yy	.	.	.	4A\	-ze	4c\	-ze	.	4cc\	-ze	.
4F\yy	2ryy	.	.	.	2r	.	2r	.	.	2r	.	.
4ryy	.	.	.	.	.	.	.	.	.	.	.	.
=66	=66	=66	=66	=66	=66	=66	=66	=66	=66	=66	=66	=66
1ryy	1ryy	.	1ryy	1ryy	4B-\	spra-	1r	.	.	1r	.	.
.	.	.	.	.	4B-\	-wie-	.	.	.	.	.	.
.	.	.	.	.	4B-\	-dli-	.	.	.	.	.	.
.	.	.	.	.	4BB-/	-wosc	.	.	.	.	.	.
=67	=67	=67	=67	=67	=67	=67	=67	=67	=67	=67	=67	=67
2E-\	2gg 2ee- 2b-\	.	1ryy	1ryy	0r	.	2e-\	Słu-	.	2gg\	Słu-	.
2D\	2ff 2dd 2b-\	.	.	.	.	.	2d\	-sznie	.	2ff\	-sznie	.
=68	=68	=68	=68	=68	=68	=68	=68	=68	=68	=68	=68	=68
2E-\	4cc 4e-/	.	1ryy	1ryy	.	.	4e-\	nas	.	4cc\	nas	.
.	4ee- 4g/	.	.	.	.	.	4g\	za-	.	4ee-\	za-	.
2r	4dd 4f/	.	.	.	.	.	4f\	-gu-	.	4dd\	-gu-	.
.	4cc 4e-/	.	.	.	.	.	4e-\	-bic	.	4cc\	-bic	.
=69	=69	=69	=69	=69	=69	=69	=69	=69	=69	=69	=69	=69
*tremolo	*	*	*	*	*	*	*	*	*	*	*	*
8F\L	2b- 2d/	.	1ryy	1ryy	1r	.	(2d\	mo-	.	(2b-\	mo-	.
8F\	.	.	.	.	.	.	.	.	.	.	.	.
8F\	.	.	.	.	.	.	.	.	.	.	.	.
8F\J	.	.	.	.	.	.	.	.	.	.	.	.
8FF/L	2a 2c/	.	.	.	.	.	2c\)	.	.	2a\)	.	.
8FF/	.	.	.	.	.	.	.	.	.	.	.	.
8FF/	.	.	.	.	.	.	.	.	.	.	.	.
8FF/J	.	.	.	.	.	.	.	.	.	.	.	.
*Xtremolo	*	*	*	*	*	*	*	*	*	*	*	*
!	!	!	!	!	!	!	!LO:LB:g=original	!	!	!LO:LB:g=original	!	!
=70	=70	=70	=70	=70	=70	=70	=70	=70	=70	=70	=70	=70
4BB-/	4b- 4d/	.	1ryy	1ryy	2r	.	4d\	-ze	.	4b-\	-ze	.
4r	4r	.	.	.	.	.	4r	.	.	4r	.	.
4r	4r	.	.	.	4r	.	4r	.	.	4r	.	.
4B-\	4ff 4dd\	.	.	.	4B-\	za-	4d\	za-	.	4ff\	za-	.
=71	=71	=71	=71	=71	=71	=71	=71	=71	=71	=71	=71	=71
4A\	4ee- 4cc\	.	1ryy	1ryy	4A\	-gu-	4c\	-gu-	.	4ee-\	-gu-	.
4A\	4ee- 4cc\	.	.	.	4A\	-bic	4c\	-bic	.	4ee-\	-bic	.
4A\	2ee- 2cc\	.	.	.	2A\	mo-	2c\	mo-	.	2ee-\	mo-	.
4A\	.	.	.	.	.	.	.	.	.	.	.	.
!	!	!	!	!	!LO:LB:g=original	!	!	!	!	!	!	!
=72	=72	=72	=72	=72	=72	=72	=72	=72	=72	=72	=72	=72
4B-\	4dd 4b-\	.	1ryy	1ryy	4B-\	-ze	4B-\	-ze	.	4dd\	-ze	.
4r	4r	.	.	.	4r	.	4r	.	.	4r	.	.
4r	4r	.	.	.	4r	.	4r	.	.	4r	.	.
*	*	*	*	*	*	*ij	*	*	*	*	*	*
!LO:TX:b:t=V.Cito	!	!	!	!	!	!	!	!	!	!	!	!
4B-\	4ff 4dd\	.	.	.	4B-\	za-	4d\	za-	.	4ff\	za-	.
!LO:PB:g=original	!LO:PB:g=original	!	!	!	!	!	!	!	!	!	!	!
=73	=73	=73	=73	=73	=73	=73	=73	=73	=73	=73	=73	=73
4A\	4ee- 4cc\	.	1ryy	1ryy	4A\	-gu-	4c\	-gu-	.	4ee-\	-gu-	.
4A\	4ee- 4cc\	.	.	.	4A\	-bic	4c\	-bic	.	4ee-\	-bic	.
4A\	2ee- 2cc\	.	.	.	2A\	mo-	2c\	mo-	.	2ee-\	mo-	.
4A\	.	.	.	.	.	.	.	.	.	.	.	.
=74	=74	=74	=74	=74	=74	=74	=74	=74	=74	=74	=74	=74
4B-\	4dd 4b-\	.	1ryy	1ryy	4B-\	-ze	4B-\	-ze	.	4dd\	-ze	.
*	*	*	*	*	*	*	*	*	*	*	*	*
4r	4r	.	.	.	4r	.	4r	.	.	4r	.	.
!	!	!	!	!	!	!	!	!	!	!LO:LB:g=original	!	!
4E-\	4gg 4ee-\	.	.	.	2r	.	4e-\	spra-	.	4gg\	Spra-	.
4C\	4aa 4cc\	.	.	.	.	.	4c\	-wie-	.	4aa\	-wie-	.
=75	=75	=75	=75	=75	=75	=75	=75	=75	=75	=75	=75	=75
*tremolo	*	*	*	*	*	*	*	*	*	*	*	*
8BB-/L	2bb- 2dd\	.	1ryy	1ryy	0r	.	2d\	-dli-	.	2bb-\	-dli-	.
8BB-/	.	.	.	.	.	.	.	.	.	.	.	.
8BB-/	.	.	.	.	.	.	.	.	.	.	.	.
8BB-/J	.	.	.	.	.	.	.	.	.	.	.	.
8D\L	2aa-X 2ff\	.	.	.	.	.	2f\	-wosc	.	2aa-X\	-wosc	.
8D\	.	.	.	.	.	.	.	.	.	.	.	.
8D\	.	.	.	.	.	.	.	.	.	.	.	.
8D\J	.	.	.	.	.	.	.	.	.	.	.	.
*Xtremolo	*	*	*	*	*	*	*	*	*	*	*	*
=76	=76	=76	=76	=76	=76	=76	=76	=76	=76	=76	=76	=76
4E-\	4gg 4ee-\	.	1ryy	1ryy	.	.	4e-\	słu-	.	4gg\	słu-	.
4r	4gg 4ee-\	.	.	.	.	.	4e-\	-sznie	.	4gg\	-sznie	.
2r	4ff 4dd\	.	.	.	.	.	4d\	nas	.	4ff\	nas	.
.	4ee- 4cc\	.	.	.	.	.	4c\	za-	.	4ee-\	za-	.
=77	=77	=77	=77	=77	=77	=77	=77	=77	=77	=77	=77	=77
*tremolo	*	*	*	*	*	*	*	*	*	*	*	*
8F\L	4dd 4f\	.	1ryy	1ryy	1r	.	4f\	-gu-	.	4dd\	-gu-	.
8F\	.	.	.	.	.	.	.	.	.	.	.	.
8F\	4ee- 4g\	.	.	.	.	.	4g\	-bic	.	4ee-\	-bic	.
8F\J	.	.	.	.	.	.	.	.	.	.	.	.
8FF/L	4dd 4f\	.	.	.	.	.	(4f\	mo-	.	(4dd\	mo-	.
8FF/	.	.	.	.	.	.	.	.	.	.	.	.
8FF/	4cc 4e-\	.	.	.	.	.	4e-\)	.	.	4cc\)	.	.
8FF/J	.	.	.	.	.	.	.	.	.	.	.	.
*Xtremolo	*	*	*	*	*	*	*	*	*	*	*	*
!	!	!	!	!	!	!	!LO:LB:g=original	!	!	!LO:LB:g=original	!	!
=78	=78	=78	=78	=78	=78	=78	=78	=78	=78	=78	=78	=78
4BB-/	4b- 4d/	.	1ryy	1ryy	2r	.	4d\	-ze	.	4b-\	-ze	.
4r	4r	.	.	.	.	.	4r	.	.	4r	.	.
4r	4r	.	.	.	4r	.	4r	.	.	4r	.	.
4B-\	4dd 4f/	.	.	.	4B-\	za-	4f\	za-	.	4dd\	za-	.
=79	=79	=79	=79	=79	=79	=79	=79	=79	=79	=79	=79	=79
4F\	4cc 4e-/	.	1ryy	1ryy	4F\	-gu-	4e-\	-gu-	.	4cc\	-gu-	.
4F\	4cc 4e-/	.	.	.	4F\	-bic	4e-\	-bic	.	4cc\	-bic	.
4F\	2cc 2e-/	.	.	.	2F\	mo-	2e-\	mo-	.	2cc\	mo-	.
4F\	.	.	.	.	.	.	.	.	.	.	.	.
=80	=80	=80	=80	=80	=80	=80	=80	=80	=80	=80	=80	=80
4F\	4b- 4d/	.	1ryy	1ryy	4BB-/	-ze	4d\	-ze	.	4b-\	-ze	.
4r	4r	.	.	.	4r	.	4r	.	.	4r	.	.
4r	4r	.	.	.	4r	.	4r	.	.	4r	.	.
4B- 4F\	4dd 4f/	.	.	.	4B-\	za-	4f\	za-	.	4dd\	za-	.
!LO:LB:g=original	!LO:LB:g=original	!	!	!	!	!	!	!	!	!	!	!
=81	=81	=81	=81	=81	=81	=81	=81	=81	=81	=81	=81	=81
4F\	4cc 4e-/	.	1ryy	1ryy	4F\	-gu-	4e-\	-gu-	.	4cc\	-gu-	.
4F\	4cc 4e-/	.	.	.	4F\	-bić	4e-\	-bic	.	4cc\	-bic	.
!	!LO:TX:t=P:problem=dwa takty wykreślone	!	!	!	!	!	!	!	!	!	!	!
4F\	2cc 2e-/	.	.	.	2F\	mo-	2e-\	mo-	.	2cc\	mo-	.
4F\	.	.	.	.	.	.	.	.	.	.	.	.
!	!	!	!	!	!LO:LB:g=original	!	!	!	!	!	!	!
=	=	=	=	=	=	=	=	=	=	=	=	=
!!LO:TX:t=P:problem:niepotrzebnie potórzone dwa takty w org (w źródle wykreślone ołówkiem)
4F\	4b- 4d/	1ryy	1ryy	1ryy	1ryy	1ryy	1ryy	1ryy	1ryy	1ryy	1ryy	1ryy
4r	4r	.	.	.	.	.	.	.	.	.	.	.
4r	4r	.	.	.	.	.	.	.	.	.	.	.
4B- 4F\	4dd 4f/	.	.	.	.	.	.	.	.	.	.	.
=	=	=	=	=	=	=	=	=	=	=	=	=
4F\	4cc 4e-/	1ryy	1ryy	1ryy	1ryy	1ryy	1ryy	1ryy	1ryy	1ryy	1ryy	1ryy
4F\	4cc 4e-/	.	.	.	.	.	.	.	.	.	.	.
4F\	2cc 2e-/	.	.	.	.	.	.	.	.	.	.	.
4F\	.	.	.	.	.	.	.	.	.	.	.	.
=82	=82	=82	=82	=82	=82	=82	=82	=82	=82	=82	=82	=82
4BB-/	4b- 4d/	.	1ryy	1ryy	4BB-/	-ze	4d\	-ze	.	4b-\	-ze	.
4r	4r	.	.	.	4r	.	4r	.	.	4r	.	.
!	!	!	!	!	!	!	!	!	!	!LO:LB:g=original	!	!
4E-\	4gg 4ee-\	.	.	.	2r	.	4e-\	Spra-	.	4gg\	spra-	.
4C\	4aan 4cc\	.	.	.	.	.	4c\	-wie-	.	4aan\	-wie-	.
=83	=83	=83	=83	=83	=83	=83	=83	=83	=83	=83	=83	=83
2D\	2bb- 2dd\	.	1ryy	1ryy	0r	.	2d\	-dli-	.	2bb-\	-dli-	.
2D\	2aa-X 2ff\	.	.	.	.	.	2f\	-wość	.	2aa-X\	-wość	.
=84	=84	=84	=84	=84	=84	=84	=84	=84	=84	=84	=84	=84
4E-\	4gg 4ee-\	.	1ryy	1ryy	.	.	4e-\	słu-	.	4gg\	słu-	.
4r	4gg 4ee-\	.	.	.	.	.	4e-\	-sznie	.	4gg\	-s[z]nie	.
2r	4ff 4dd\	.	.	.	.	.	4d\	nas	.	4ff\	nas	.
.	4ee- 4cc\	.	.	.	.	.	4c\	za-	.	4ee-\	za-	.
=85	=85	=85	=85	=85	=85	=85	=85	=85	=85	=85	=85	=85
*tremolo	*	*	*	*	*	*	*	*	*	*	*	*
8F\L	4dd 4f\	.	1ryy	1ryy	1r	.	4f\	-gu-	.	4dd\	-gu-	.
8F\	.	.	.	.	.	.	.	.	.	.	.	.
8F\	4ee- 4g\	.	.	.	.	.	4g\	-bic	.	4ee-\	-bic	.
8F\J	.	.	.	.	.	.	.	.	.	.	.	.
!	!	!	!	!	!	!	!LO:LB:g=original	!	!	!	!	!
8FF/L	(4dd 4f\	.	.	.	.	.	(4f\	mo-	.	(4dd\	mo-	.
8FF/	.	.	.	.	.	.	.	.	.	.	.	.
8FF/	4cc 4e-\)	.	.	.	.	.	4e-\)	.	.	4cc\)	.	.
8FF/J	.	.	.	.	.	.	.	.	.	.	.	.
*Xtremolo	*	*	*	*	*	*	*	*	*	*	*	*
!	!	!	!	!	!	!	!	!	!	!LO:LB:g=original	!	!
=86	=86	=86	=86	=86	=86	=86	=86	=86	=86	=86	=86	=86
4BB-/	4b- 4d\	.	1ryy	1ryy	2r	.	4d\	-ze	.	4b-\	-ze	.
4r	4r	.	.	.	.	.	4r	.	.	4r	.	.
4r	4r	.	.	.	4r	.	4r	.	.	4r	.	.
!	!	!LO:DY:a:rj:B:i:t=pp.	!	!	!	!	!	!	!LO:DY:a:rj:B:i:t=pp.	!	!	!LO:DY:a:rj:B:i:t=pp.
4B-\	4ff 4dd\	pp	.	.	4B-\	za-	4d\	za-	pp	4ff\	za-	pp
=87	=87	=87	=87	=87	=87	=87	=87	=87	=87	=87	=87	=87
!	!	!	!	!	!	!	!LO:TX:a:B:t=Adagio	!	!	!	!	!
4A 4F\	4ee- 4cc\	.	1ryy	1ryy	4F\	-gu-	4c\	-gu-	.	4ee-\	-gu-	.
4A 4F\	4ee- 4cc\	.	.	.	4F\	-bic	4c\	-bic	.	4ee-\	-bic	.
2A 2F\	2ee- 2cc\	.	.	.	2F\	mo-	2c\	mo-	.	2ee-\	mo-	.
!LO:LB:g=original	!LO:LB:g=original	!	!	!	!	!	!	!	!	!	!	!
=88	=88	=88	=88	=88	=88	=88	=88	=88	=88	=88	=88	=88
4B- 4F\	4dd 4b-\	.	1ryy	1ryy	4BB-/	-ze	4B-\	-ze	.	4dd\	-ze	.
!	!	!	!	!	!LO:TX:a:B:t=Adagio	!	!	!	!	!	!	!
4r	4r	.	.	.	4r	.	4r	.	.	4r	.	.
4r	4r	.	.	.	4r	.	4r	.	.	4r	.	.
4B- 4F\	4ff 4dd\	.	.	.	4B-\	za-	4d\	za-	.	4ff\	za-	.
=89	=89	=89	=89	=89	=89	=89	=89	=89	=89	=89	=89	=89
!	!LO:TX:a:B:t=Adagio	!	!	!	!	!	!	!	!	!LO:TX:b:B:t=Adagio	!	!
4A 4F\	4ee- 4cc\	.	1ryy	1ryy	4F\	-gu-	4c\	-gu-	.	4ee-\	-gu-	.
4A 4F\	4ee- 4cc\	.	.	.	4F\	-bic	4c\	-bic	.	4ee-\	-bic	.
2A 2F\	2ee- 2cc\	.	.	.	2F\	mo-	2c\	mo-	.	2ee-\	mo-	.
=90	=90	=90	=90	=90	=90	=90	=90	=90	=90	=90	=90	=90
1B- 1F 1BB-	1dd 1b-;	.	1ryy	1ryy	4BB-/	-ze	1B-;	-ze	.	1dd;	-ze.	.
*	*	*	*	*	*	*Xij	*	*	*	*	*	*
.	.	.	.	.	4r	.	.	.	.	.	.	.
.	.	.	.	.	2r	.	.	.	.	.	.	.
==	==	==	==	==	==	==	==	==	==	==	==	==
*-	*-	*-	*-	*-	*-	*-	*-	*-	*-	*-	*-	*-
!!!system-decoration: [g1][g2]{g3}
!!!RDF**kern: > = above
!!!RDF**kern: < = below
!!!AIN: 1 bass 2 organ 1 soprn 1 tenor 2 violn
!!!ENC: Katarzyna Serwa
!!!END: 2021-12-06
!!!ENC: Andrzej Gręziak
!!!END: 2021-11-24
